packages/ripple-ui-core/src/assets/patterns/triangles-bottom.svg

<svg xmlns="http://www.w3.org/2000/svg" viewBox="0 0 3169.1 2393.1"><g style="isolation:isolate"><path d="M3622.19-484.65H903.63l1359.28 2874.72Z" style="fill: rgb(195, 195, 195);"></path><path d="M-1814.93 3348.31H903.63L-455.65 473.59Z" style="fill:#757575"></path><path d="M1809.8 3348.31h2718.56L3169.08 473.59Z" style="fill: rgb(90, 90, 90);"></path><path d="M-2.56 3348.31H2716L1356.72 473.59Z" style="fill: silver;"></path><path d="M5434.57-484.65H2716l1359.28 2874.72Z" style="fill: rgb(72, 72, 72);"></path><path d="M1809.82-484.65H-908.75L450.53 2390.07Z" style="fill:#bababa"></path><path d="M2262.91 3348.31h1812.37L3169.1 1431.83Z" style="fill: rgb(61, 61, 61); mix-blend-mode: screen;"></path><path d="M903.58 1431.83H2716L1809.77-484.65Z" style="fill: rgb(176, 176, 176);"></path><path d="M2262.91 1431.83h-906.19l453.1 958.24Z" style="fill: rgb(195, 195, 195);"></path><path d="M1356.72-484.65H450.53l453.1 958.24Z" style="fill: rgb(186, 186, 186); mix-blend-mode: screen;"></path><path d="m903.63-484.65-453.1 958.24h906.19Z" style="fill:#adadad;mix-blend-mode:screen"></path><path d="M2262.91-484.65h-906.19l453.1 958.24Z" style="mix-blend-mode:lighten;fill:#c3c3c3"></path><path d="M3169.1-484.65h-906.19L2716 473.59Z" style="fill: rgb(124, 124, 124);"></path><path d="M4075.28-484.65H3169.1l453.09 958.24Z" style="fill:#7c7c7c;mix-blend-mode:screen"></path><path d="M450.53 473.59h-906.18l453.09 958.24Z" style="fill: rgb(69, 69, 69);"></path><path d="M1356.72 473.59H450.53l453.1 958.24Z" style="fill: rgb(186, 186, 186); mix-blend-mode: screen;"></path><path d="M2262.91 473.59h-906.19l453.1 958.24Z" style="fill: rgb(176, 176, 176);"></path><path d="M3169.1 473.59h-906.19L2716 1431.83Z" style="fill: rgb(110, 110, 110); mix-blend-mode: overlay;"></path><path d="M4075.28 473.59H3169.1l453.09 958.24Z" style="mix-blend-mode:screen;fill:#484848"></path><path d="M450.53 1431.83h-906.18l453.09 958.24Z" style="mix-blend-mode:screen;fill:#757575"></path><path d="M1356.72 1431.83H450.53l453.1 958.24Z" style="fill: rgb(186, 186, 186); mix-blend-mode: screen;"></path><path d="M3169.1 1431.83h-906.19L2716 2390.07Z" style="fill: rgb(195, 195, 195); mix-blend-mode: screen;"></path><path d="M4075.28 1431.83H3169.1l453.09 958.24Z" style="fill:#828282;mix-blend-mode:screen"></path><path d="M450.53 2390.07h-906.18l453.09 958.24Z" style="fill:#474747;mix-blend-mode:overlay"></path><path d="M1356.72 2390.07H450.53l453.1 958.24Z" style="fill: rgb(186, 186, 186); mix-blend-mode: screen;"></path><path d="M2262.91 2390.07h-906.19l453.1 958.24Z" style="fill: rgb(152, 152, 152);"></path><path d="M3169.1 2390.07h-906.19L2716 3348.31Z" style="fill: rgb(110, 110, 110); mix-blend-mode: overlay;"></path><path d="M4075.28 2390.07H3169.1l453.09 958.24Z" style="fill: rgb(61, 61, 61); mix-blend-mode: screen;"></path><path d="M3169.1 3348.31h906.18l-453.09-958.24Z" style="fill: rgb(195, 195, 195); mix-blend-mode: screen;"></path><path d="M2716-484.65h-906.18l453.09 958.24Z" style="fill: rgb(90, 90, 90);"></path><path d="M1809.82 473.59H903.63l453.09 958.24Z" style="mix-blend-mode: overlay; fill: rgb(152, 152, 152);"></path><path d="m2262.91 473.59-453.09 958.24H2716Z" style="fill: rgb(195, 195, 195);"></path><path d="M1809.82 2390.07H903.63l453.09 958.24Z" style="mix-blend-mode: overlay; fill: rgb(152, 152, 152);"></path><path d="M223.93-5.53h-453.09L-2.62 473.59Z" style="fill: rgb(69, 69, 69);"></path><path d="M450.53 473.59H-2.56L224 952.71Z" style="mix-blend-mode:overlay;fill:#757575"></path><path d="M903.63 473.59h-453.1l226.55 479.12ZM677.08 953.5H224l226.54 479.12Z" style="fill: rgb(186, 186, 186); mix-blend-mode: screen;"></path><path d="M903.63 1431.83h-453.1L677.08 1911Z" style="fill: silver;"></path><path d="M450.53 1431.83 224 1911h453.08ZM1809.85 1431.83 1583.3 1911h453.09Z" style="fill: rgb(208, 208, 208);"></path><path d="m2036.7 952.6-226.54 479.12h453.09Z" style="fill: rgb(124, 124, 124);"></path><path d="M450.53 2390.07H-2.56L224 2869.19Z" style="fill: rgb(186, 186, 186); mix-blend-mode: screen;"></path><path d="m2489.46 952.71-226.55 479.12H2716Z" style="mix-blend-mode: screen; fill: rgb(176, 176, 176);"></path><path d="M2716 473.59h-453.09l226.55 479.12Z" style="fill: rgb(195, 195, 195); mix-blend-mode: screen;"></path><path d="M2716 1431.83h-453.09L2489.46 1911Z" style="mix-blend-mode:multiply;fill:#c3c3c3"></path><path d="M2942.51 1911h-453.1L2716 2390.07Z" style="fill: rgb(176, 176, 176);"></path><path d="M2716 2390.07h-453.09l226.55 479.12Z" style="fill:#3d3d3d"></path><path d="M3395.64-5.53h-453.09l226.55 479.12Z" style="fill:#292929"></path><path d="M3622.19 473.59H3169.1l226.54 479.12Z" style="fill: rgb(72, 72, 72);"></path><path d="M3395.64 952.71h-453.09l226.55 479.12Z" style="mix-blend-mode: screen; fill: rgb(176, 176, 176);"></path><path d="M3622.19 1431.83H3169.1L3395.64 1911Z" style="fill: rgb(72, 72, 72);"></path><path d="M3395.64 1911h-453.09l226.55 479.12Z" style="fill: rgb(109, 109, 109);"></path><path d="M3622.19 2390.07H3169.1l226.54 479.12Z" style="fill: rgb(61, 61, 61); mix-blend-mode: screen;"></path><path d="M1809.77 473.59h-453.09l226.54 479.12Z" style="fill: rgb(195, 195, 195); mix-blend-mode: screen;"></path><path d="M2036.36 952.71h-453.09l226.55 479.12Z" style="fill: rgb(109, 109, 109);"></path><path d="m1583.22 952.71-226.54 479.12h453.09Z" style="fill:#6f6f6f"></path><path d="m1130.13 952.71-226.55 479.12h453.1Z" style="fill: silver;"></path><path d="M1583.22 1911h-453.09l226.55 479.12Z" style="fill:#989898;mix-blend-mode:screen"></path><path d="M1809.77 2390.07h-453.09l226.54 479.12Z" style="fill: rgb(186, 186, 186); mix-blend-mode: screen;"></path><path d="M1356.68 1431.83h-453.1L1130.13 1911Z" style="fill: rgb(152, 152, 152);"></path><path d="M2488.32-5.34h-226.54l113.27 239.56Z" style="mix-blend-mode:multiply;fill:#b0b0b0"></path><path d="M2262.91 473.08h-226.55l113.28 239.56Z" style="fill: rgb(124, 124, 124); mix-blend-mode: overlay;"></path><path d="M2262.91 1913.92h-226.55l113.28 239.56Z" style="mix-blend-mode:multiply;fill:#7c7c7c"></path><path d="m2716 1431.83-113.27 239.56h226.54Z" style="fill: rgb(124, 124, 124); mix-blend-mode: overlay;"></path><path d="m790.35 1674.36-113.27 239.56h226.55Z" style="fill:#515151;mix-blend-mode:overlay"></path><path d="M330.47 219.78 437-5.53H223.93Z" style="mix-blend-mode:multiply;fill:#adadad"></path></g></svg>

<svg xmlns="http://www.w3.org/2000/svg" viewBox="0 0 3169.1 2393.1">
  <g style="isolation:isolate;">
    <path d="M3622.19-484.65H903.63L2262.91,2390.07Z" style="fill:#c3c3c3;" />
    <path d="M-1814.93,3348.31H903.63L-455.65,473.59Z" style="fill:#757575;" />
    <path d="M1809.8,3348.31H4528.36L3169.08,473.59Z" style="fill:#5a5a5a;" />
    <path d="M-2.56,3348.31H2716L1356.72,473.59Z" style="fill:silver;" />
    <path d="M5434.57-484.65H2716L4075.28,2390.07Z" style="fill:#484848;" />
    <path d="M1809.82-484.65H-908.75L450.53,2390.07Z" style="fill:#bababa;" />
    <path d="M2262.91,3348.31H4075.28L3169.1,1431.83Z" style="fill:#3d3d3d;mix-blend-mode:screen;" />
    <path d="M903.58,1431.83H2716L1809.77-484.65Z" style="fill:#b0b0b0;" />
    <path d="M2262.91,1431.83H1356.72l453.1,958.24Z" style="fill:#c3c3c3;" />
    <path d="M1356.72-484.65H450.53l453.1,958.24Z" style="fill:#bababa;mix-blend-mode:screen;" />
    <path d="M903.63-484.65,450.53,473.59h906.19Z" style="mix-blend-mode:screen;fill:#adadad;" />
    <path d="M2262.91-484.65H1356.72l453.1,958.24Z" style="fill:#c3c3c3;mix-blend-mode:lighten;" />
    <path d="M3169.1-484.65H2262.91L2716,473.59Z" style="fill:#7c7c7c;" />
    <path d="M4075.28-484.65H3169.1l453.09,958.24Z" style="mix-blend-mode:screen;fill:#7c7c7c;" />
    <path d="M450.53,473.59H-455.65L-2.56,1431.83Z" style="fill:#454545;" />
    <path d="M1356.72,473.59H450.53l453.1,958.24Z" style="fill:#bababa;mix-blend-mode:screen;" />
    <path d="M2262.91,473.59H1356.72l453.1,958.24Z" style="fill:#b0b0b0;" />
    <path d="M3169.1,473.59H2262.91L2716,1431.83Z" style="fill:#6e6e6e;mix-blend-mode:overlay;" />
    <path d="M4075.28,473.59H3169.1l453.09,958.24Z" style="fill:#484848;mix-blend-mode:screen;" />
    <path d="M450.53,1431.83H-455.65L-2.56,2390.07Z" style="fill:#757575;mix-blend-mode:screen;" />
    <path d="M1356.72,1431.83H450.53l453.1,958.24Z" style="fill:#bababa;mix-blend-mode:screen;" />
    <path d="M3169.1,1431.83H2262.91L2716,2390.07Z" style="fill:#c3c3c3;mix-blend-mode:screen;" />
    <path d="M4075.28,1431.83H3169.1l453.09,958.24Z" style="mix-blend-mode:screen;fill:#828282;" />
    <path d="M450.53,2390.07H-455.65L-2.56,3348.31Z" style="mix-blend-mode:overlay;fill:#474747;" />
    <path d="M1356.72,2390.07H450.53l453.1,958.24Z" style="fill:#bababa;mix-blend-mode:screen;" />
    <path d="M2262.91,2390.07H1356.72l453.1,958.24Z" style="fill:#989898;" />
    <path d="M3169.1,2390.07H2262.91L2716,3348.31Z" style="fill:#6e6e6e;mix-blend-mode:overlay;" />
    <path d="M4075.28,2390.07H3169.1l453.09,958.24Z" style="fill:#3d3d3d;mix-blend-mode:screen;" />
    <path d="M3169.1,3348.31h906.18l-453.09-958.24Z" style="fill:#c3c3c3;mix-blend-mode:screen;" />
    <path d="M2716-484.65H1809.82l453.09,958.24Z" style="fill:#5a5a5a;" />
    <path d="M1809.82,473.59H903.63l453.09,958.24Z" style="mix-blend-mode:overlay;fill:#989898;" />
    <path d="M2262.91,473.59l-453.09,958.24H2716Z" style="fill:#c3c3c3;" />
    <path d="M1809.82,2390.07H903.63l453.09,958.24Z" style="mix-blend-mode:overlay;fill:#989898;" />
    <path d="M223.93-5.53H-229.16L-2.62,473.59Z" style="fill:#454545;" />
    <path d="M450.53,473.59H-2.56L224,952.71Z" style="fill:#757575;mix-blend-mode:overlay;" />
    <path d="M903.63,473.59H450.53L677.08,952.71Z" style="fill:#bababa;mix-blend-mode:screen;" />
    <path d="M677.08,953.5H224l226.54,479.12Z" style="fill:#bababa;mix-blend-mode:screen;" />
    <path d="M903.63,1431.83H450.53L677.08,1911Z" style="fill:silver;" />
    <path d="M450.53,1431.83,224,1911H677.08Z" style="fill:#d0d0d0;" />
    <path d="M1809.85,1431.83,1583.3,1911h453.09Z" style="fill:#d0d0d0;" />
    <path d="M2036.7,952.6l-226.54,479.12h453.09Z" style="fill:#7c7c7c;" />
    <path d="M450.53,2390.07H-2.56L224,2869.19Z" style="fill:#bababa;mix-blend-mode:screen;" />
    <path d="M2489.46,952.71l-226.55,479.12H2716Z" style="mix-blend-mode:screen;fill:#b0b0b0;" />
    <path d="M2716,473.59H2262.91l226.55,479.12Z" style="fill:#c3c3c3;mix-blend-mode:screen;" />
    <path d="M2716,1431.83H2262.91L2489.46,1911Z" style="fill:#c3c3c3;mix-blend-mode:multiply;" />
    <path d="M2942.51,1911h-453.1L2716,2390.07Z" style="fill:#b0b0b0;" />
    <path d="M2716,2390.07H2262.91l226.55,479.12Z" style="fill:#3d3d3d;" />
    <path d="M3395.64-5.53H2942.55L3169.1,473.59Z" style="fill:#292929;" />
    <path d="M3622.19,473.59H3169.1l226.54,479.12Z" style="fill:#484848;" />
    <path d="M3395.64,952.71H2942.55l226.55,479.12Z" style="mix-blend-mode:screen;fill:#b0b0b0;" />
    <path d="M3622.19,1431.83H3169.1L3395.64,1911Z" style="fill:#484848;" />
    <path d="M3395.64,1911H2942.55l226.55,479.12Z" style="fill:#6d6d6d;" />
    <path d="M3622.19,2390.07H3169.1l226.54,479.12Z" style="fill:#3d3d3d;mix-blend-mode:screen;" />
    <path d="M1809.77,473.59H1356.68l226.54,479.12Z" style="fill:#c3c3c3;mix-blend-mode:screen;" />
    <path d="M2036.36,952.71H1583.27l226.55,479.12Z" style="fill:#6d6d6d;" />
    <path d="M1583.22,952.71l-226.54,479.12h453.09Z" style="fill:#6f6f6f;" />
    <path d="M1130.13,952.71,903.58,1431.83h453.1Z" style="fill:silver;" />
    <path d="M1583.22,1911H1130.13l226.55,479.12Z" style="mix-blend-mode:screen;fill:#989898;" />
    <path d="M1809.77,2390.07H1356.68l226.54,479.12Z" style="fill:#bababa;mix-blend-mode:screen;" />
    <path d="M1356.68,1431.83H903.58L1130.13,1911Z" style="fill:#989898;" />
    <path d="M2488.32-5.34H2261.78l113.27,239.56Z" style="fill:#b0b0b0;mix-blend-mode:multiply;" />
    <path d="M2262.91,473.08H2036.36l113.28,239.56Z" style="fill:#7c7c7c;mix-blend-mode:overlay;" />
    <path d="M2262.91,1913.92H2036.36l113.28,239.56Z" style="fill:#7c7c7c;mix-blend-mode:multiply;" />
    <path d="M2716,1431.83l-113.27,239.56h226.54Z" style="fill:#7c7c7c;mix-blend-mode:overlay;" />
    <path d="M790.35,1674.36,677.08,1913.92H903.63Z" style="mix-blend-mode:overlay;fill:#515151;" />
    <path d="M330.47,219.78,437-5.53H223.93Z" style="fill:#adadad;mix-blend-mode:multiply;" />
  </g>
</svg>
